X: 23521
T: Liberty Bell March, The
R: jig
M: 6/8
K: Cmajor
|:E3 ^E3|^F3 G3|e2^d e2^d|(e3 e3)|
E3 ^E3|^F3 G3|f2e f2e|(f3 f2)e|
d3^c3|d2G ^F2G|e3^d3|e3G ^F2G|
1B3 d3|c3 A3|G2A F2G|E2F D2^D:|
2A3 f3|e3 d3|c2G A AGE|(C3 C)||

